X: 2
T: Bill Sullivan's
R: polka
M: 2/4
L: 1/8
K: Dmaj
|: c |d2 d>B | AF d2 | FA dB | AF ED |
d2 dB | AF d2 | FA E>F | ED D :|
|: D/E/ ||: FA AF | GB BA | FA FA | FE ED/E/ |
FA- AF | G/A/B BA | FA E>F |1 ED- D :|


Tune 481	Setting 13382

